;FLAVOR:Marlin
;TIME:10265
;Filament used: 6.24818m
;Layer height: 0.2
;MINX:130.839
;MINY:137.826
;MINZ:0.16
;MAXX:170.611
;MAXY:160.887
;MAXZ:54.84
;POSTPROCESSED
;ChangeAtZ instances: 1
;Generated with Cura_SteamEngine 4.4.1
M140 S90
M105
M190 S90
M104 S230
M105
M109 S230
M82 ;absolute extrusion mode
G28 ;Home
G1 Z15.0 F6000 ;Move the platform down 15mm
;Prime the extruder
G92 E0
G1 F200 E3
G92 E0
M201 X1000 Y1000 Z1000 E5000 ; sets maximum accelerations, mm/sec^2
M203 X200 Y200 Z12 E120 ; sets maximum feedrates, mm/sec
M204 P1250 R1250 T1250 ; sets acceleration (P, T) and retract acceleration (R), mm/sec^2
M205 X8.00 Y8.00 Z0.40 E1.50 ; sets the jerk limits, mm/sec
M205 S0 T0 ; sets the minimum extruding and travel feed rate, mm/sec
G92 E0
G92 E0
G1 F4800 E-40
;LAYER_COUNT:389
;LAYER:0
M107
G0 F4500 X134.4 Y140.493 Z0.16
;TYPE:SUPPORT
G1 F4800 E0
G1 F1500 X147.6 Y140.493 E0.35123
G1 X147.604 Y150.364 E0.61388
G1 X147.703 Y151.771 E0.65141
G1 X147.988 Y153.168 E0.68934
G1 X148.139 Y153.607 E0.7017
G1 X147.999 Y153.671 E0.70579
G1 X144.217 Y150.093 E0.84432
G1 X134.397 Y150.093 E1.10561
G1 X134.4 Y140.493 E1.36105
G0 F4500 X134.56 Y141.351
G1 F1500 X147.441 Y141.351 E1.70379
G0 F4500 X146.685 Y140.653
G1 F1500 X146.685 Y152.207 E2.01122
G0 F4500 X146.486 Y152.019
G1 F1500 X147.59 Y152.019 E2.0406
G0 F4500 X147.444 Y149.352
G1 F1500 X134.558 Y149.352 E2.38347
G0 F4500 X136.017 Y149.933
G1 F1500 X136.017 Y140.653 E2.63039
G0 F4500 X138.684 Y140.653
G1 F1500 X138.684 Y149.933 E2.87731
G0 F4500 X141.351 Y149.933
G1 F1500 X141.351 Y140.653 E3.12424
G0 F4500 X144.018 Y140.653
G1 F1500 X144.018 Y149.933 E3.37116
G0 F4500 X147.443 Y146.685
G1 F1500 X134.559 Y146.685 E3.71398
G0 F4500 X134.559 Y144.018
G1 F1500 X147.442 Y144.018 E4.05677
G0 F4500 X149.46 Y139.393
G1 F1500 X150.163 Y138.691 E4.08321
G1 X151.234 Y138.691 E4.1117
G1 X151.268 Y138.705 E4.11268
G1 X154.778 Y138.705 E4.20608
G1 X154.786 Y139.393 E4.22438
G1 X149.46 Y139.393 E4.3661
G0 F4500 X152.019 Y139.233
G1 F1500 X152.019 Y138.865 E4.37589
G1 F4800 E-35.62411
G0 F4500 X152.022 Y137.828
G0 X155.622 Y137.854
G0 X164.446 Y139.628
G0 X164.446 Y140.493
G1 F4800 E4.37589
G1 F1500 X165.313 Y140.493 E4.39896
G1 X167.257 Y140.028 E4.45215
G1 X168.337 Y140.028 E4.48088
G1 X168.64 Y140.332 E4.4923
G1 X169.426 Y140.332 E4.51322
G1 X169.426 Y140.704 E4.52311
G1 X169.581 Y141.072 E4.53374
G1 X169.581 Y141.235 E4.53808
G1 X169.746 Y141.599 E4.54871
G1 X169.746 Y144.935 E4.63748
G1 X169.562 Y145.175 E4.64552
G1 X168.815 Y145.175 E4.6654
G1 X168.416 Y145.574 E4.68041
G1 X168.416 Y147.028 E4.7191
G1 X167.158 Y146.202 E4.75914
G1 X166.65 Y146.18 E4.77267
G1 X164.86 Y147.146 E4.8268
G1 X164.6 Y147.583 E4.84033
G1 X164.6 Y149.005 E4.87816
G1 X164.528 Y149.005 E4.88008
G1 X164.446 Y140.493 E5.10658
G0 F4500 X164.614 Y141.351
G1 F1500 X169.458 Y141.351 E5.23547
G0 F4500 X168.021 Y140.188
G1 F1500 X168.021 Y146.578 E5.40549
G0 F4500 X165.375 Y146.685
G1 F1500 X164.665 Y146.685 E5.42438
G0 F4500 X165.354 Y146.697
G1 F1500 X165.354 Y140.647 E5.58536
G0 F4500 X164.64 Y144.018
G1 F1500 X169.586 Y144.018 E5.71697
G1 F4800 E-34.28303
;MESH:Heat_tower_190-240_Bridge.stl
G0 F4500 X170.611 Y144.018
G0 X170.608 Y145.228
G0 X169.269 Y147.922
G0 X157.73 Y160.787
G0 X155.745 Y160.596
G0 X154.676 Y160.235
G0 X132.9 Y150.958
G0 X132.872 Y149.665
G0 X133.298 Y150.093
;TYPE:WALL-OUTER
G1 F4800 E5.71697
G1 F1500 X131.7 Y150.093 E5.75949
G1 X131.7 Y140.493 E6.01492
G1 X133.3 Y140.493 E6.0575
G1 X133.3 Y149.955 E6.30926
G1 X133.298 Y150.093 E6.31294
G0 F4500 X133.098 Y150.093
G0 X132.83 Y149.623
G0 X132.1 Y149.693
;TYPE:WALL-INNER
G1 F1500 X132.1 Y140.893 E6.54709
G1 X132.9 Y140.893 E6.56837
G1 X132.9 Y149.693 E6.80252
G1 X132.1 Y149.693 E6.82381
G0 F4500 X132.41 Y149.381
;TYPE:SKIN
G1 F1500 X132.499 Y149.187 E6.82976
G1 X132.499 Y141.55 E7.04276
G1 X132.652 Y141.138 E7.05502
G0 F4500 X132.5 Y141.293
G1 F4800 E-32.94498
G0 F4500 X132.886 Y149.679
G0 X132.886 Y150.958
G0 X147.833 Y154.694
G0 X148.643 Y154.342
G0 X149.871 Y153.911
G0 X162.967 Y152.496
G0 X163.46 Y152.676
;TYPE:WALL-OUTER
G1 F4800 E7.05502
G1 F1500 X157.405 Y159.838 E7.30456
G1 X157.265 Y160.003 E7.31032
G1 X157.176 Y160 E7.31269
G1 X155.962 Y159.758 E7.34563
G1 X154.749 Y159.347 E7.3797
G1 X153.642 Y158.801 E7.41255
G1 X152.533 Y158.066 E7.44795
G1 X151.571 Y157.222 E7.482
G1 X150.756 Y156.292 E7.5149
G1 X150.036 Y155.226 E7.54913
G1 X149.466 Y154.081 E7.58316
G1 X149.049 Y152.871 E7.61722
G1 X148.794 Y151.616 E7.65129
G1 X148.704 Y150.322 E7.68581
G1 X148.7 Y140.693 E7.94202
G1 X148.7 Y140.493 E7.94734
G1 X148.9 Y140.493 E7.95078
G1 X163.461 Y140.493 E8.33823
G1 X163.461 Y152.35 E8.65372
G1 X163.46 Y152.676 E8.66239
G0 F4500 X163.331 Y152.828
G0 X163.06 Y152.53
;TYPE:WALL-INNER
G1 F1500 X157.102 Y159.578 E8.90795
G1 X156.068 Y159.372 E8.93601
G1 X154.904 Y158.977 E8.96871
G1 X153.838 Y158.451 E9.00034
G1 X152.781 Y157.751 E9.03408
G1 X151.855 Y156.938 E9.06687
G1 X151.07 Y156.043 E9.09854
G1 X150.383 Y155.025 E9.13122
G1 X149.835 Y153.926 E9.1639
G1 X149.436 Y152.768 E9.19649
G1 X149.191 Y151.561 E9.22926
G1 X149.104 Y150.308 E9.26268
G1 X149.1 Y141.093 E9.50787
G1 X149.1 Y140.893 E9.51319
G1 X149.3 Y140.893 E9.51664
G1 X163.061 Y140.893 E9.88279
G1 X163.061 Y152.349 E10.18761
G1 X163.06 Y152.53 E10.19243
G0 F4500 X162.967 Y152.496
G0 X156.177 Y158.986
G1 F1500 X155.057 Y158.606 E10.2239
G1 X154.034 Y158.101 E10.25426
G1 X153.029 Y157.436 E10.28632
G1 X152.139 Y156.654 E10.31785
G1 X151.388 Y155.799 E10.34813
G1 X150.727 Y154.818 E10.3796
G1 X150.204 Y153.77 E10.41077
G1 X149.823 Y152.665 E10.44187
G1 X149.588 Y151.506 E10.47333
G1 X149.504 Y150.294 E10.50566
G1 X149.5 Y141.493 E10.73984
G1 X149.5 Y141.293 E10.74516
G1 X149.7 Y141.293 E10.7486
G1 X162.661 Y141.293 E11.09347
G1 X162.661 Y152.383 E11.38856
G1 X156.949 Y159.14 E11.62398
G1 X156.177 Y158.986 E11.64493
G0 F4500 X156.796 Y158.702
G1 F1500 X156.286 Y158.6 E11.65876
G1 X155.21 Y158.235 E11.689
G1 X154.235 Y157.754 E11.71793
G1 X153.267 Y157.114 E11.7488
G1 X152.427 Y156.375 E11.77857
G1 X151.706 Y155.555 E11.80763
G1 X151.073 Y154.614 E11.8378
G1 X150.572 Y153.611 E11.86763
G1 X150.21 Y152.561 E11.89719
G1 X149.985 Y151.453 E11.92727
G1 X149.904 Y150.28 E11.95855
G1 X149.9 Y141.893 E12.18172
G1 X149.9 Y141.693 E12.18704
G1 X150.1 Y141.693 E12.19048
G1 X162.261 Y141.693 E12.51407
G1 X162.261 Y152.237 E12.79462
G1 X156.796 Y158.702 E13.01987
G0 F4500 X156.643 Y158.264
G1 F1500 X156.392 Y158.214 E13.02668
G1 X155.365 Y157.865 E13.05554
G1 X154.436 Y157.407 E13.0831
G1 X153.506 Y156.792 E13.11277
G1 X152.71 Y156.092 E13.14097
G1 X152.025 Y155.312 E13.16859
G1 X151.421 Y154.414 E13.19739
G1 X150.94 Y153.452 E13.22601
G1 X150.597 Y152.458 E13.25399
G1 X150.382 Y151.398 E13.28277
G1 X150.304 Y150.266 E13.31296
G1 X150.3 Y142.293 E13.5251
G1 X150.3 Y142.093 E13.53042
G1 X150.5 Y142.093 E13.53387
G1 X161.861 Y142.093 E13.83617
G1 X161.861 Y152.091 E14.10219
G1 X156.643 Y158.264 E14.31726
G0 F4500 X156.493 Y157.837
;TYPE:SKIN
G1 F1500 X155.511 Y157.503 E14.34486
G1 X154.634 Y157.071 E14.37088
G1 X153.748 Y156.485 E14.39914
G1 X152.983 Y155.812 E14.42625
G1 X152.338 Y155.078 E14.45225
G1 X151.757 Y154.214 E14.47996
G1 X151.302 Y153.302 E14.50707
G1 X150.974 Y152.353 E14.53379
G1 X150.77 Y151.353 E14.56095
G1 X150.694 Y150.239 E14.59066
G1 X150.69 Y142.483 E14.79703
G1 X161.471 Y142.483 E15.08389
G1 X161.471 Y151.948 E15.33574
G1 X156.493 Y157.837 E15.54092
G0 F4500 X154.506 Y156.769
G1 F1500 X152.025 Y154.287 E15.63429
G1 X151.955 Y154.217
G0 F4500 X151.434 Y153.131
G1 F1500 X155.67 Y157.367 E15.79369
G1 X155.74 Y157.437
G0 F4500 X156.462 Y157.593
G1 F1500 X151.141 Y152.273 E15.9939
G0 F4500 X150.996 Y151.561
G1 F1500 X156.721 Y157.286 E16.20933
G0 F4500 X156.98 Y156.98
G1 F1500 X150.92 Y150.92 E16.43736
G0 F4500 X150.878 Y150.313
G1 F1500 X157.239 Y156.673 E16.67671
G0 F4500 X157.498 Y156.367
G1 F1500 X150.872 Y149.741 E16.92604
G0 F4500 X150.872 Y149.175
G1 F1500 X157.757 Y156.06 E17.18512
G0 F4500 X158.017 Y155.754
G1 F1500 X150.871 Y148.609 E17.454
G0 F4500 X150.871 Y148.043
G1 F1500 X158.275 Y155.447 E17.73261
G0 F4500 X158.535 Y155.141
G1 F1500 X150.871 Y147.477 E18.021
G0 F4500 X150.871 Y146.911
G1 F1500 X158.794 Y154.834 E18.31914
G0 F4500 X159.053 Y154.528
G1 F1500 X150.871 Y146.345 E18.62705
G0 F4500 X150.871 Y145.779
G1 F1500 X159.312 Y154.221 E18.9447
G0 F4500 X159.572 Y153.915
G1 F1500 X150.87 Y145.213 E19.27215
G0 F4500 X150.87 Y144.647
G1 F1500 X159.83 Y153.608 E19.60933
G0 F4500 X160.09 Y153.302
G1 F1500 X150.869 Y144.081 E19.95631
G0 F4500 X150.869 Y143.515
G1 F1500 X160.349 Y152.995 E20.31304
G0 F4500 X160.608 Y152.689
G1 F1500 X150.869 Y142.95 E20.67951
G0 F4500 X151.148 Y142.663
G1 F1500 X160.867 Y152.382 E21.04523
G0 F4500 X161.127 Y152.076
G1 F1500 X151.714 Y142.663 E21.39944
G0 F4500 X152.279 Y142.663
G1 F1500 X161.29 Y151.673 E21.7385
G0 F4500 X161.29 Y151.108
G1 F1500 X152.845 Y142.663 E22.05628
G0 F4500 X153.411 Y142.663
G1 F1500 X161.29 Y150.542 E22.35277
G0 F4500 X161.29 Y149.976
G1 F1500 X153.976 Y142.663 E22.62797
G0 F4500 X154.542 Y142.663
G1 F1500 X161.29 Y149.41 E22.88188
G0 F4500 X161.29 Y148.845
M104 S220
G1 F1500 X155.108 Y142.663 E23.1145
G0 F4500 X155.673 Y142.663
G1 F1500 X161.29 Y148.279 E23.32585
G0 F4500 X161.29 Y147.713
G1 F1500 X156.239 Y142.663 E23.5159
G0 F4500 X156.805 Y142.663
G1 F1500 X161.29 Y147.148 E23.68466
G0 F4500 X161.29 Y146.582
G1 F1500 X157.37 Y142.663 E23.83215
G0 F4500 X157.936 Y142.663
G1 F1500 X161.29 Y146.016 E23.95834
G0 F4500 X161.29 Y145.451
G1 F1500 X158.502 Y142.663 E24.06325
G0 F4500 X159.067 Y142.663
G1 F1500 X161.29 Y144.885 E24.14689
G0 F4500 X161.29 Y144.319
G1 F1500 X159.633 Y142.663 E24.20922
G0 F4500 X160.199 Y142.663
G1 F1500 X161.29 Y143.754 E24.25027
G0 F4500 X161.29 Y143.188
G1 F1500 X160.764 Y142.663 E24.27005
G1 F4800 E-15.72995
;MESH:NONMESH
G0 F600 X160.764 Y142.663 Z0.33
G0 F4500 X157.648 Y140.933
G0 X157.648 Y139.628
G0 X155.622 Y137.854
G0 X149.807 Y137.83
G0 X131.343 Y139.632
G0 X130.839 Y150.45
G0 X136.017 Y150.958
G0 X136.017 Y150.093
;TIME_ELAPSED:47.808357
;LAYER:1
M140 S65
M106 S34
;TYPE:SUPPORT
G1 F4800 E24.27005
G1 F2250 X138.684 Y150.093 E24.34545
G1 X138.684 Y140.493 E24.61685
G1 X141.351 Y140.493 E24.69225
G1 X141.351 Y150.093 E24.96365
G1 X144.018 Y150.093 E25.03905
G1 X144.018 Y140.493 E25.31045
G1 X146.685 Y140.493 E25.38585
G1 X146.685 Y152.427 E25.72324
G1 X147.999 Y153.671 E25.7744
G1 X148.14 Y153.606 E25.77878
G1 X148.003 Y153.211 E25.7906
G1 X147.712 Y151.811 E25.83103
G1 X147.607 Y150.426 E25.8703
G1 X147.6 Y140.493 E26.15111
G1 X146.685 Y140.493 E26.17698
G1 F4800 E-13.82302
G0 F6750 X146.685 Y139.628
G0 X131.343 Y139.632
G0 X130.839 Y150.45
G0 X136.017 Y150.958
G0 X136.017 Y150.093
G1 F4800 E26.17698
G1 F2250 X134.4 Y150.093 E26.2227
G1 X134.4 Y140.493 E26.4941
G1 X136.017 Y140.493 E26.53981
G1 X136.017 Y150.093 E26.81122
G1 F4800 E-13.18878
G0 F6750 X136.017 Y150.958
G0 X131.343 Y150.954
G0 X130.839 Y140.136
G0 X149.807 Y137.83
G0 X151.234 Y137.826
G0 X151.234 Y138.691
G1 F4800 E26.81122
G1 F2250 X150.163 Y138.691 E26.8415
G1 X149.46 Y139.393 E26.86958
G1 X152.019 Y139.393 E26.94193
G1 X152.019 Y138.705 E26.96138
G1 X151.268 Y138.705 E26.98261
G1 X151.234 Y138.691 E26.98365
G1 F4800 E-13.01635
G0 F6750 X151.275 Y137.826
G0 X155.622 Y137.854
G0 X155.643 Y139.048
G0 X154.686 Y139.393
G1 F4800 E26.98365
G1 F2250 X154.786 Y139.393 E26.98648
G1 X154.778 Y138.705 E27.00593
G1 X154.686 Y138.705 E27.00853
G1 X154.686 Y139.393 E27.02798
G1 X152.019 Y139.393 E27.10338
G1 F4800 E-12.89662
G0 F6750 X152.024 Y137.828
G0 X155.622 Y137.854
G0 X165.21 Y139.629
G0 X165.354 Y140.483
G1 F4800 E27.10338
G1 F2250 X165.313 Y140.493 E27.10457
G1 X164.149 Y140.493 E27.13748
G1 X164.149 Y144.009 E27.23688
G1 X164.161 Y145.29 E27.2731
G1 X164.66 Y145.288 E27.28721
G1 X164.68 Y147.448 E27.34827
G1 X164.86 Y147.146 E27.35821
G1 X165.354 Y146.88 E27.37408
G1 X165.354 Y140.483 E27.55493
G1 X167.257 Y140.028 E27.61024
G1 X168.021 Y140.028 E27.63184
G1 X168.021 Y146.768 E27.82239
G1 X168.416 Y147.028 E27.83576
G1 X168.416 Y145.574 E27.87686
G1 X168.815 Y145.175 E27.89282
G1 X169.563 Y145.175 E27.91396
G1 X169.746 Y144.936 E27.92247
G1 X169.746 Y141.599 E28.01681
G1 X169.581 Y141.235 E28.02811
G1 X169.581 Y141.072 E28.03272
G1 X169.426 Y140.704 E28.04401
G1 X169.426 Y140.332 E28.05453
G1 X168.64 Y140.332 E28.07675
G1 X168.337 Y140.028 E28.08888
G1 X168.021 Y140.028 E28.09782
G1 F4800 E-11.90218
;MESH:Heat_tower_190-240_Bridge.stl
G0 F6750 X168.021 Y139.163
G0 X155.622 Y137.854
G0 X149.807 Y137.83
G0 X132.886 Y139.628
G0 X132.886 Y140.907
G0 X132.17 Y149.623
G0 X131.7 Y150.093
;TYPE:WALL-OUTER
G1 F4800 E28.09782
G1 F1500 X131.7 Y140.493 E28.36922
G1 X133.3 Y140.493 E28.41445
G1 X133.3 Y150.093 E28.68585
G1 X131.7 Y150.093 E28.73109
G0 F6750 X131.7 Y149.893
G0 X132.1 Y149.693
;TYPE:WALL-INNER
G1 F2250 X132.1 Y140.893 E28.97987
G1 X132.9 Y140.893 E29.00249
G1 X132.9 Y149.693 E29.25128
G1 X132.1 Y149.693 E29.27389
G0 F6750 X132.499 Y149.211
;TYPE:SKIN
G1 F1500 X132.499 Y148.928 E29.28249
G1 X132.499 Y141.291 E29.51454
G1 X132.358 Y141.15 E29.5206
G0 F6750 X132.294 Y141.214
G0 X132.704 Y149.289
G1 F1500 X132.496 Y149.497 E29.52476
G0 F6750 X132.5 Y149.293
G1 F4800 E-10.47524
G0 F6750 X132.886 Y150.958
G0 X149.28 Y155.63
G0 X150.424 Y155.051
G0 X157.217 Y159.504
G0 X157.435 Y160.003
;TYPE:WALL-OUTER
G1 F4800 E29.52476
G1 F1500 X157.132 Y159.991 E29.53333
G1 X155.962 Y159.758 E29.56706
G1 X154.749 Y159.347 E29.60327
G1 X153.681 Y158.82 E29.63694
G1 X152.532 Y158.066 E29.67579
G1 X151.571 Y157.222 E29.71195
G1 X150.783 Y156.325 E29.7457
G1 X150.063 Y155.267 E29.78188
G1 X149.484 Y154.119 E29.81823
G1 X149.063 Y152.911 E29.8544
G1 X148.802 Y151.651 E29.89078
G1 X148.707 Y150.38 E29.92681
G1 X148.7 Y140.693 E30.20067
G1 X148.7 Y140.493 E30.20633
G1 X148.9 Y140.493 E30.20999
G1 X163.431 Y140.493 E30.6208
G1 X163.631 Y140.493 E30.62645
G1 X163.631 Y140.693 E30.63011
G1 X163.63 Y152.677 E30.96891
G1 X157.435 Y160.003 E31.24015
G0 F6750 X157.235 Y159.996
G0 X157.257 Y159.595
;TYPE:WALL-INNER
G1 F2250 X157.175 Y159.592 E31.24247
G1 X156.068 Y159.372 E31.27438
G1 X154.904 Y158.977 E31.30913
G1 X153.874 Y158.469 E31.3416
G1 X152.78 Y157.751 E31.37859
G1 X151.855 Y156.938 E31.41341
G1 X151.099 Y156.078 E31.44578
G1 X150.407 Y155.061 E31.48056
G1 X149.855 Y153.966 E31.51522
G1 X149.449 Y152.803 E31.55005
G1 X149.199 Y151.594 E31.58495
G1 X149.107 Y150.363 E31.61985
G1 X149.1 Y141.093 E31.88192
G1 X149.1 Y140.893 E31.88758
G1 X149.3 Y140.893 E31.89124
G1 X163.031 Y140.893 E32.27943
G1 X163.231 Y140.893 E32.28508
G1 X163.231 Y141.093 E32.28875
G1 X163.23 Y152.531 E32.61211
G1 X157.257 Y159.595 E32.87364
G0 F6750 X157.094 Y159.168
G1 F2250 X156.177 Y158.986 E32.90007
G1 X155.057 Y158.606 E32.93351
G1 X154.067 Y158.118 E32.96471
G1 X153.024 Y157.433 E32.99999
G1 X152.138 Y156.655 E33.03332
G1 X151.419 Y155.836 E33.06413
G1 X150.751 Y154.855 E33.09769
G1 X150.226 Y153.813 E33.13067
G1 X149.835 Y152.695 E33.16416
G1 X149.596 Y151.537 E33.19759
G1 X149.507 Y150.346 E33.23135
G1 X149.5 Y141.493 E33.48163
G1 X149.5 Y141.293 E33.48729
G1 X149.7 Y141.293 E33.49095
G1 X162.631 Y141.293 E33.85652
G1 X162.831 Y141.293 E33.86218
G1 X162.831 Y141.493 E33.86584
G1 X162.83 Y152.385 E34.17377
G1 X157.094 Y159.168 E34.42491
G0 F6750 X156.941 Y158.73
G1 F2250 X156.286 Y158.6 E34.44378
G1 X155.21 Y158.235 E34.47591
G1 X154.264 Y157.769 E34.50572
G1 X153.269 Y157.116 E34.53937
G1 X152.422 Y156.371 E34.57126
G1 X151.735 Y155.589 E34.60068
G1 X151.095 Y154.649 E34.63283
G1 X150.597 Y153.66 E34.66414
G1 X150.221 Y152.587 E34.69628
G1 X149.993 Y151.48 E34.72824
G1 X149.907 Y150.329 E34.76087
G1 X149.9 Y141.893 E34.99936
G1 X149.9 Y141.693 E35.00502
G1 X150.1 Y141.693 E35.00868
G1 X162.231 Y141.693 E35.35163
G1 X162.431 Y141.693 E35.35729
G1 X162.431 Y141.893 E35.36095
G1 X162.43 Y152.239 E35.65344
G1 X156.941 Y158.73 E35.89377
G0 F6750 X156.788 Y158.292
G1 F2250 X156.392 Y158.214 E35.90518
G1 X155.365 Y157.865 E35.93584
