;FLAVOR:Marlin
;TIME:10685
;Filament used: 8.48637m
;Layer height: 0.15
;MINX:149.232
;MINY:88.339
;MINZ:0.2
;MAXX:224.289
;MAXY:123.896
;MAXZ:63.95
;TARGET_MACHINE.NAME:Eryone Thinker Series
;Generated with Cura_SteamEngine 5.9.0
M140 S60
M105
M190 S60
M104 S215
M105
M109 S215
M82 ;absolute extrusion mode
M280 P0 S160 ; BLTouch alarm release
G4 P100 ; delay for BLTouch
G28 ; home
G29 ; auto bed leveling
G1 Z15.0 F6000 ;Move the platform down 15mm
;Prime the extruder
G92 E0
G1 F200 E3
G92 E0
M201 X750 Y750 Z750 E5000 ; sets maximum accelerations, mm/sec^2
M203 X200 Y200 Z12 E120 ; sets maximum feedrates, mm/sec
M204 P1250 R1250 T1250 ; sets acceleration (P, T) and retract acceleration (R), mm/sec^2
M205 X8.00 Y8.00 Z0.40 E1.50 ; sets the jerk limits, mm/sec
M205 S0 T0 ; sets the minimum extruding and travel feed rate, mm/sec
G92 E0
G92 E0
G1 F3300 E-6.5
;LAYER_COUNT:426
;LAYER:0
M107
M204 S1500
M205 X15 Y15
G0 F4320 X219.184 Y123.784 Z0.2
M204 S750
M205 X10 Y10
;TYPE:SKIRT
G1 F1320 E0
G1 F2040 X218.669 Y123.896 E0.01578
G1 X155.075 Y123.896 E1.91941
G1 X153.372 Y123.389 E1.9726
G1 X152.331 Y122.901 E2.00701
G1 X151.005 Y121.806 E2.05849
G1 X149.94 Y120.345 E2.11261
G1 X149.232 Y118.223 E2.17957
G1 X149.236 Y94.129 E2.9008
G1 X149.607 Y92.49 E2.95111
G1 X150.647 Y90.729 E3.01233
G1 X150.932 Y90.411 E3.02511
G1 X152.704 Y89.091 E3.09125
G1 X154.701 Y88.339 E3.15513
G1 X218.445 Y88.34 E5.06325
G1 X220.148 Y88.847 E5.11644
G1 X221.189 Y89.335 E5.15085
G1 X222.515 Y90.43 E5.20233
G1 X223.58 Y91.891 E5.25645
G1 X224.288 Y94.013 E5.32341
G1 X224.289 Y118.04 E6.04264
G1 X223.867 Y119.623 E6.09168
G1 X223.192 Y120.938 E6.13593
G1 X221.942 Y122.32 E6.19171
G1 X221.144 Y122.961 E6.22235
G1 X219.184 Y123.784 E6.28598
M204 S1500
M205 X15 Y15
G0 F4320 X219.045 Y123.452
M204 S750
M205 X10 Y10
G1 F2040 X218.669 Y123.536 E6.29751
G1 X155.127 Y123.536 E8.19959
G1 X153.525 Y123.063 E8.24959
G1 X152.525 Y122.594 E8.28265
G1 X151.269 Y121.557 E8.33141
G1 X150.263 Y120.177 E8.38253
G1 X149.592 Y118.166 E8.44599
G1 X149.596 Y94.169 E9.16432
G1 X149.946 Y92.624 E9.21174
G1 X150.957 Y90.912 E9.27125
G1 X151.147 Y90.7 E9.27977
G1 X152.879 Y89.41 E9.34442
G1 X154.767 Y88.699 E9.40481
G1 X218.393 Y88.7 E11.3094
G1 X219.995 Y89.173 E11.3594
G1 X220.995 Y89.642 E11.39246
G1 X222.251 Y90.679 E11.44122
G1 X223.257 Y92.059 E11.49234
G1 X223.928 Y94.07 E11.5558
G1 X223.929 Y117.992 E12.27188
G1 X223.528 Y119.496 E12.31848
G1 X222.895 Y120.729 E12.35997
G1 X221.716 Y122.039 E12.41272
G1 X220.956 Y122.65 E12.44191
G1 X219.045 Y123.452 E12.50395
M204 S1500
M205 X15 Y15
G0 F4320 X218.906 Y123.12
M204 S750
M205 X10 Y10
G1 F2040 X218.669 Y123.176 E12.51124
G1 X155.177 Y123.176 E14.41182
G1 X153.678 Y122.737 E14.45857
G1 X152.719 Y122.287 E14.49028
G1 X151.533 Y121.308 E14.53632
G1 X150.586 Y120.009 E14.58444
G1 X149.952 Y118.109 E14.6444
G1 X149.956 Y94.208 E15.35985
G1 X150.284 Y92.759 E15.40432
G1 X151.267 Y91.095 E15.46218
G1 X151.362 Y90.989 E15.46644
G1 X153.054 Y89.729 E15.52959
G1 X154.833 Y89.059 E15.58649
G1 X218.343 Y89.06 E17.48761
G1 X219.842 Y89.499 E17.53436
G1 X220.801 Y89.949 E17.56607
G1 X221.987 Y90.928 E17.61211
G1 X222.934 Y92.227 E17.66023
G1 X223.568 Y94.127 E17.72019
G1 X223.569 Y117.944 E18.43313
G1 X223.189 Y119.369 E18.47727
G1 X222.598 Y120.52 E18.516
G1 X221.448 Y121.798 E18.56747
G1 X220.769 Y122.338 E18.59344
G1 X218.906 Y123.12 E18.65392
M204 S1500
M205 X15 Y15
G0 F4320 X218.767 Y122.788
M204 S750
M205 X10 Y10
G1 F2040 X218.628 Y122.816 E18.65816
G1 X155.229 Y122.816 E20.55596
G1 X153.831 Y122.411 E20.59952
G1 X152.913 Y121.98 E20.62988
G1 X151.797 Y121.059 E20.6732
G1 X150.909 Y119.841 E20.71832
G1 X150.312 Y118.052 E20.77477
G1 X150.316 Y94.248 E21.48732
G1 X150.623 Y92.893 E21.52891
G1 X151.577 Y91.278 E21.58506
G1 X153.229 Y90.048 E21.64671
G1 X154.899 Y89.419 E21.70013
G1 X218.291 Y89.42 E23.59771
G1 X219.689 Y89.825 E23.64128
G1 X220.607 Y90.256 E23.67164
G1 X221.723 Y91.177 E23.71495
G1 X222.611 Y92.395 E23.76008
G1 X223.208 Y94.184 E23.81653
G1 X223.209 Y117.896 E24.52633
G1 X222.85 Y119.242 E24.56803
G1 X222.3 Y120.314 E24.60409
G1 X221.224 Y121.516 E24.65239
G1 X220.583 Y122.026 E24.67691
G1 X218.767 Y122.788 E24.73586
M204 S1500
M205 X15 Y15
G0 F4320 X218.628 Y122.456
M204 S750
M205 X10 Y10
G1 F2040 X155.28 Y122.456 E26.63212
G1 X153.984 Y122.085 E26.67248
G1 X153.107 Y121.673 E26.70148
G1 X152.061 Y120.81 E26.74207
G1 X151.232 Y119.673 E26.7842
G1 X150.672 Y117.995 E26.83715
G1 X150.676 Y94.287 E27.54683
G1 X150.961 Y93.028 E27.58547
G1 X151.85 Y91.524 E27.63777
G1 X153.404 Y90.367 E27.69576
G1 X154.965 Y89.779 E27.74569
G1 X218.24 Y89.78 E29.63977
G1 X219.536 Y90.151 E29.68013
G1 X220.413 Y90.563 E29.70913
G1 X221.459 Y91.426 E29.74972
G1 X222.288 Y92.563 E29.79184
G1 X222.848 Y94.241 E29.8448
G1 X222.849 Y117.848 E30.55145
G1 X222.511 Y119.115 E30.59071
G1 X222.002 Y120.108 E30.62411
G1 X221 Y121.234 E30.66923
G1 X220.397 Y121.714 E30.6923
G1 X218.628 Y122.456 E30.74972
M204 S1500
M205 X15 Y15
G0 F4320 X218.556 Y122.096
M204 S750
M205 X10 Y10
G1 F2040 X155.329 Y122.096 E32.64237
G1 X154.137 Y121.759 E32.67945
G1 X153.301 Y121.366 E32.7071
G1 X152.325 Y120.561 E32.74497
G1 X151.555 Y119.505 E32.78409
G1 X151.032 Y117.938 E32.83354
G1 X151.036 Y94.326 E33.54034
G1 X151.299 Y93.163 E33.57604
G1 X152.123 Y91.77 E33.62448
G1 X153.579 Y90.686 E33.67882
G1 X155.031 Y90.139 E33.72527
G1 X218.191 Y90.14 E35.61591
G1 X219.383 Y90.477 E35.65299
G1 X220.219 Y90.87 E35.68064
G1 X221.195 Y91.675 E35.71851
G1 X221.965 Y92.731 E35.75763
G1 X222.488 Y94.298 E35.80708
G1 X222.489 Y117.8 E36.51059
G1 X222.172 Y118.988 E36.5474
G1 X221.704 Y119.902 E36.57814
G1 X220.776 Y120.952 E36.62008
G1 X220.211 Y121.402 E36.64171
G1 X218.556 Y122.096 E36.69543
M204 S1500
M205 X15 Y15
G0 F4320 X218.484 Y121.736
M204 S750
M205 X10 Y10
G1 F2040 X155.379 Y121.736 E38.58442
G1 X154.29 Y121.433 E38.61826
G1 X153.495 Y121.059 E38.64456
G1 X152.589 Y120.312 E38.67971
G1 X151.878 Y119.337 E38.71583
G1 X151.392 Y117.881 E38.76177
G1 X151.396 Y94.366 E39.46568
G1 X151.638 Y93.298 E39.49846
G1 X152.396 Y92.016 E39.54304
G1 X153.754 Y91.005 E39.59372
G1 X155.097 Y90.499 E39.63668
G1 X218.141 Y90.5 E41.52384
G1 X219.23 Y90.803 E41.55768
G1 X220.025 Y91.177 E41.58398
G1 X220.931 Y91.924 E41.61913
G1 X221.642 Y92.899 E41.65525
G1 X222.128 Y94.355 E41.7012
G1 X222.129 Y117.752 E42.40157
G1 X221.833 Y118.861 E42.43593
G1 X221.405 Y119.696 E42.46401
G1 X220.552 Y120.67 E42.50277
G1 X220.025 Y121.09 E42.52294
G1 X218.484 Y121.736 E42.57296
M204 S1500
M205 X15 Y15
G0 F4320 X218.412 Y121.376
M204 S750
M205 X10 Y10
G1 F2040 X155.429 Y121.376 E44.4583
G1 X154.387 Y121.086 E44.49068
G1 X153.69 Y120.753 E44.5138
G1 X152.853 Y120.063 E44.54627
G1 X152.201 Y119.169 E44.57939
G1 X151.752 Y117.824 E44.62184
G1 X151.756 Y94.405 E45.32287
G1 X151.976 Y93.433 E45.3527
G1 X152.669 Y92.262 E45.39343
G1 X153.929 Y91.324 E45.44045
G1 X155.163 Y90.859 E45.47992
G1 X218.091 Y90.86 E47.36362
G1 X219.133 Y91.15 E47.396
G1 X219.83 Y91.483 E47.41912
G1 X220.667 Y92.173 E47.45159
G1 X221.319 Y93.067 E47.48471
G1 X221.768 Y94.412 E47.52716
G1 X221.769 Y117.704 E48.22438
G1 X221.494 Y118.734 E48.25629
G1 X221.106 Y119.491 E48.28176
G1 X220.281 Y120.433 E48.31924
G1 X219.84 Y120.777 E48.33598
G1 X218.412 Y121.376 E48.38234
M204 S1500
M205 X15 Y15
G0 F4320 X218.34 Y121.016
M204 S750
M205 X10 Y10
G1 F2040 X155.477 Y121.016 E50.26409
G1 X154.542 Y120.761 E50.2931
G1 X153.885 Y120.447 E50.31489
G1 X153.117 Y119.814 E50.34469
G1 X152.524 Y119.001 E50.37481
G1 X152.112 Y117.767 E50.41375
G1 X152.116 Y94.444 E51.11191
G1 X152.314 Y93.568 E51.13879
G1 X152.942 Y92.508 E51.17567
G1 X154.104 Y91.643 E51.21903
G1 X155.229 Y91.219 E51.25502
G1 X218.043 Y91.22 E53.1353
G1 X218.978 Y91.475 E53.16431
G1 X219.635 Y91.789 E53.18611
G1 X220.403 Y92.422 E53.2159
G1 X220.996 Y93.235 E53.24603
G1 X221.408 Y94.469 E53.28497
G1 X221.409 Y117.656 E53.97905
G1 X221.155 Y118.607 E54.00852
G1 X220.807 Y119.286 E54.03136
G1 X220.01 Y120.196 E54.06757
G1 X219.657 Y120.463 E54.08081
G1 X218.34 Y121.016 E54.12357
M204 S1500
M205 X15 Y15
G0 F4320 X218.268 Y120.656
M204 S750
M205 X10 Y10
G1 F2040 X155.525 Y120.656 E56.00173
G1 X154.697 Y120.436 E56.02737
G1 X154.08 Y120.141 E56.04785
G1 X153.381 Y119.565 E56.07496
G1 X152.847 Y118.833 E56.10208
G1 X152.472 Y117.71 E56.13752
G1 X152.476 Y94.484 E56.83277
G1 X152.653 Y93.703 E56.85674
G1 X153.215 Y92.754 E56.88976
G1 X154.279 Y91.962 E56.92946
G1 X155.295 Y91.579 E56.96197
G1 X217.995 Y91.58 E58.83884
G1 X218.823 Y91.8 E58.86448
G1 X219.44 Y92.095 E58.88495
G1 X220.139 Y92.671 E58.91207
G1 X220.673 Y93.403 E58.93919
G1 X221.048 Y94.526 E58.97463
G1 X221.049 Y117.608 E59.66557
G1 X220.817 Y118.476 E59.69246
G1 X220.506 Y119.084 E59.71291
G1 X219.739 Y119.959 E59.74774
G1 X219.518 Y120.131 E59.75612
G1 X218.268 Y120.656 E59.7967
M204 S1500
M205 X15 Y15
G0 F4320 X218.196 Y120.296
M204 S750
M205 X10 Y10
G1 F2040 X155.572 Y120.296 E61.6713
G1 X154.789 Y120.088 E61.69555
G1 X154.277 Y119.837 E61.71262
G1 X153.645 Y119.316 E61.73714
G1 X153.17 Y118.665 E61.76126
G1 X152.832 Y117.653 E61.7932
G1 X152.836 Y94.524 E62.48554
G1 X152.992 Y93.838 E62.5066
G1 X153.488 Y93 E62.53575
G1 X154.454 Y92.281 E62.5718
G1 X155.361 Y91.939 E62.60082
G1 X217.948 Y91.94 E64.4743
G1 X218.731 Y92.148 E64.49855
G1 X219.243 Y92.399 E64.51562
G1 X219.875 Y92.92 E64.54014
G1 X220.35 Y93.571 E64.56426
G1 X220.688 Y94.583 E64.5962
G1 X220.689 Y117.56 E65.284
G1 X220.479 Y118.345 E65.30832
G1 X220.205 Y118.882 E65.32637
G1 X219.468 Y119.722 E65.35982
G1 X219.336 Y119.817 E65.36469
G1 X218.196 Y120.296 E65.4017
M204 S1500
M205 X15 Y15
G0 F4320 X218.124 Y119.936
M204 S750
M205 X10 Y10
G1 F2040 X155.619 Y119.936 E67.27273
G1 X154.881 Y119.74 E67.29559
G1 X154.506 Y119.559 E67.30806
G1 X153.909 Y119.067 E67.33121
G1 X153.493 Y118.497 E67.35234
G1 X153.192 Y117.596 E67.38077
G1 X153.196 Y94.564 E68.07022
G1 X153.33 Y93.974 E68.08833
G1 X153.762 Y93.245 E68.11369
G1 X154.629 Y92.6 E68.14604
G1 X155.427 Y92.299 E68.17157
G1 X217.901 Y92.3 E70.04167
G1 X218.639 Y92.496 E70.06453
G1 X219.014 Y92.677 E70.077
G1 X219.611 Y93.169 E70.10015
G1 X220.027 Y93.739 E70.12128
G1 X220.328 Y94.64 E70.14971
G1 X220.329 Y117.512 E70.83437
G1 X220.131 Y118.252 E70.8573
G1 X219.906 Y118.677 E70.87169
G1 X219.197 Y119.485 E70.90387
G1 X218.124 Y119.936 E70.93871
M204 S1500
M205 X15 Y15
G0 F4320 X218.052 Y119.576
M204 S750
M205 X10 Y10
G1 F2040 X155.666 Y119.576 E72.80618
G1 X154.973 Y119.392 E72.82764
G1 X154.735 Y119.281 E72.8355
G1 X154.173 Y118.818 E72.8573
G1 X153.816 Y118.329 E72.87542
G1 X153.552 Y117.539 E72.90036
G1 X153.556 Y94.603 E73.58693
G1 X153.668 Y94.108 E73.60212
G1 X154.034 Y93.492 E73.62357
G1 X154.804 Y92.919 E73.6523
G1 X155.493 Y92.659 E73.67434
G1 X217.854 Y92.66 E75.54106
G1 X218.547 Y92.844 E75.56253
G1 X218.785 Y92.955 E75.57039
G1 X219.347 Y93.418 E75.59219
G1 X219.704 Y93.907 E75.61031
G1 X219.968 Y94.697 E75.63524
G1 X219.969 Y117.464 E76.31675
G1 X219.783 Y118.159 E76.33829
G1 X219.634 Y118.441 E76.34784
G1 X218.99 Y119.182 E76.37722
G1 X218.052 Y119.576 E76.40768
M204 S1500
M205 X15 Y15
G0 F4320 X217.979 Y119.216
M204 S750
M205 X10 Y10
G1 F2040 X155.713 Y119.216 E78.27156
G1 X155.065 Y119.044 E78.29163
G1 X154.928 Y118.974 E78.29623
G1 X154.437 Y118.569 E78.31528
G1 X154.139 Y118.161 E78.33041
G1 X153.912 Y117.482 E78.35184
G1 X153.911 Y94.666 E79.03482
G1 X153.977 Y94.292 E79.04618
G1 X154.306 Y93.739 E79.06545
G1 X154.979 Y93.238 E79.09056
G1 X155.559 Y93.019 E79.10912
G1 X217.807 Y93.02 E80.97246
G1 X218.455 Y93.192 E80.99253
G1 X218.592 Y93.262 E80.99713
G1 X219.083 Y93.667 E81.01618
G1 X219.381 Y94.075 E81.03131
G1 X219.608 Y94.754 E81.05274
G1 X219.609 Y117.416 E81.73111
G1 X219.435 Y118.066 E81.75125
G1 X219.361 Y118.206 E81.75599
G1 X218.783 Y118.878 E81.78252
G1 X217.979 Y119.216 E81.80863
M204 S1500
M205 X15 Y15
G0 F4320 X217.906 Y118.856
M204 S750
M205 X10 Y10
G1 F2040 X155.76 Y118.856 E83.66891
G1 X155.157 Y118.696 E83.68759
G1 X154.666 Y118.291 E83.70664
G1 X154.48 Y118.047 E83.71583
G1 X154.272 Y117.425 E83.73546
G1 X154.271 Y94.666 E84.41673
G1 X154.32 Y94.419 E84.42427
G1 X154.578 Y93.986 E84.43936
G1 X155.154 Y93.557 E84.46085
G1 X155.625 Y93.379 E84.47593
G1 X217.76 Y93.38 E86.33588
G1 X218.363 Y93.54 E86.35456
G1 X218.854 Y93.945 E86.37361
G1 X219.04 Y94.189 E86.38279
G1 X219.248 Y94.811 E86.40243
G1 X219.249 Y117.368 E87.07765
G1 X219.087 Y117.973 E87.0964
G1 X218.575 Y118.574 E87.12003
G1 X217.906 Y118.856 E87.14176
M204 S1500
M205 X15 Y15
G0 F4320 X218.14 Y117.99
M204 S750
M205 X10 Y10
G1 F2040 X217.76 Y118.136 E87.15395
G1 X155.76 Y118.136 E89.00987
G1 X155.443 Y118.028 E89.01989
G1 X155.138 Y117.748 E89.03228
G1 X154.992 Y117.368 E89.04447
G1 X154.991 Y94.666 E89.72403
G1 X155.064 Y94.522 E89.72887
G1 X155.584 Y94.135 E89.74827
G1 X155.691 Y94.099 E89.75165
G1 X217.76 Y94.1 E91.60963
G1 X218.077 Y94.208 E91.61966
G1 X218.382 Y94.488 E91.63205
G1 X218.528 Y94.868 E91.64424
G1 X218.529 Y117.368 E92.31775
G1 X218.42 Y117.685 E92.32779
G1 X218.14 Y117.99 E92.34018
M204 S1500
M205 X15 Y15
G0 F4320 X217.832 Y118.496
M204 S750
M205 X10 Y10
G1 F2040 X155.76 Y118.496 E94.19825
G1 X155.327 Y118.369 E94.21176
G1 X154.895 Y118.013 E94.22852
G1 X154.802 Y117.877 E94.23345
G1 X154.632 Y117.368 E94.24951
G1 X154.631 Y94.666 E94.92908
G1 X154.67 Y94.503 E94.93409
G1 X154.849 Y94.233 E94.94379
G1 X155.369 Y93.846 E94.96319
G1 X155.691 Y93.739 E94.97335
G1 X217.76 Y93.74 E96.83133
G1 X218.193 Y93.867 E96.84484
G1 X218.625 Y94.223 E96.8616
G1 X218.718 Y94.359 E96.86653
G1 X218.888 Y94.868 E96.88259
G1 X218.889 Y117.368 E97.55611
G1 X218.76 Y117.802 E97.56966
G1 X218.365 Y118.271 E97.58802
G1 X217.832 Y118.496 E97.60534
M204 S1500
M205 X15 Y15
;MESH:remote-Body.stl
G0 F4320 X217.684 Y117.527
G0 X217.448 Y117.056
M204 S750
M205 X10 Y10
;TYPE:WALL-INNER
G1 F1800 X217.448 Y95.18 E98.26017
G1 X156.07 Y95.177 E100.09747
G1 X156.072 Y117.056 E100.7524
G1 X217.448 Y117.056 E102.58964
M204 S1500
M205 X15 Y15
G0 F4320 X217.663 Y117.416
M204 S750
M205 X10 Y10
G1 F1800 X217.808 Y117.301 E102.59518
G1 X217.808 Y94.961 E103.2639
G1 X217.696 Y94.82 E103.26929
G1 X155.867 Y94.817 E105.12009
G1 X155.709 Y94.935 E105.12599
G1 X155.712 Y117.303 E105.79556
G1 X155.86 Y117.416 E105.80113
G1 X217.663 Y117.416 E107.65115
M204 S1500
M205 X15 Y15
G0 F4320 X217.727 Y117.776
M204 S750
M205 X10 Y10
;TYPE:WALL-OUTER
G1 F1800 X217.907 Y117.709 E107.6569
G1 X218.097 Y117.516 E107.66501
G1 X218.168 Y117.334 E107.67086
G1 X218.168 Y94.897 E108.34249
G1 X218.101 Y94.717 E108.34824
G1 X217.909 Y94.528 E108.3563
G1 X217.727 Y94.46 E108.36212
G1 X155.787 Y94.457 E110.21624
G1 X155.349 Y94.755 E110.2321
G1 X155.352 Y117.336 E110.90804
G1 X155.416 Y117.516 E110.91376
G1 X155.608 Y117.705 E110.92182
G1 X155.794 Y117.776 E110.92778
G1 X217.727 Y117.776 E112.78169
M204 S1500
M205 X15 Y15
G0 F4320 X217.907 Y117.709
G0 X217.912 Y117.704
G0 X217.469 Y117.076
G0 X217.128 Y116.736
M204 S750
M205 X10 Y10
;TYPE:SKIN
G1 F1200 X156.392 Y116.736 E114.59977
G1 X156.389 Y95.496 E115.23557
G1 X217.128 Y95.5 E117.05374
G1 X217.128 Y116.736 E117.68942
M204 S1500
M205 X15 Y15
G0 F4320 X217.368 Y116.736
G0 X217.296 Y95.332
G0 X216.85 Y95.68
M204 S750
M205 X10 Y10
G1 F1200 X216.948 Y95.778 E117.69357
M204 S1500
M205 X15 Y15
G0 F4320 X216.948 Y96.287
M204 S750
M205 X10 Y10
G1 F1200 X216.341 Y95.68 E117.71927
M204 S1500
M205 X15 Y15
G0 F4320 X215.832 Y95.68
M204 S750
M205 X10 Y10
G1 F1200 X216.948 Y96.797 E117.76653
M204 S1500
M205 X15 Y15
G0 F4320 X216.948 Y97.306
M204 S750
M205 X10 Y10
G1 F1200 X215.323 Y95.68 E117.83534
M204 S1500
M205 X15 Y15
G0 F4320 X214.813 Y95.68
M204 S750
M205 X10 Y10
G1 F1200 X216.948 Y97.815 E117.92573
M204 S1500
M205 X15 Y15
G0 F4320 X216.948 Y98.324
M204 S750
M205 X10 Y10
G1 F1200 X214.304 Y95.68 E118.03765
M204 S1500
M205 X15 Y15
G0 F4320 X213.795 Y95.68
M204 S750
M205 X10 Y10
G1 F1200 X216.948 Y98.833 E118.17113
M204 S1500
M205 X15 Y15
G0 F4320 X216.948 Y99.342
M204 S750
M205 X10 Y10
